_includes/icons/color-cocktail.svg

<svg fill="#666" height="50" viewBox="0 0 48 48" width="50" xmlns="http://www.w3.org/2000/svg"><path d="m42 12c0 4.417969-3.582031 8-8 8s-8-3.582031-8-8 3.582031-8 8-8 8 3.582031 8 8z" fill="#ffeb3b"/><g fill="#fffde7"><path d="m33 5h2v14h-2z"/><path d="m27 11h14v2h-14z"/><path d="m28.34375 7.757813 1.414063-1.414063 9.898437 9.898438-1.414062 1.414062z"/><path d="m29.757813 17.65625-1.414063-1.414062 9.898438-9.898438 1.414062 1.414063z"/></g><path d="m34 5.5c3.585938 0 6.5 2.914063 6.5 6.5 0 3.585938-2.914062 6.5-6.5 6.5-3.585937 0-6.5-2.914062-6.5-6.5 0-3.585937 2.914063-6.5 6.5-6.5m0-1.5c-4.417969 0-8 3.582031-8 8s3.582031 8 8 8 8-3.582031 8-8-3.582031-8-8-8z" fill="#ffc107"/><path d="m29.851563 17h1.464843l3.683594-5h-7.5c0 2.007813.914063 3.808594 2.351563 5z" fill="#ffb300"/><g fill="#90caf9"><path d="m20 28.53125h2v13.46875h-2z"/><path d="m29 43s-7-1-7-4-2-3-2 0-7 4-7 4c-.554687 0-1 .445313-1 1h18c0-.554687-.445312-1-1-1z"/><path d="m7 12 3.683594 5h17.078125c-1.101563-1.371094-1.761719-3.105469-1.761719-5z"/></g><path d="m27.5 12h-1.5c0 1.894531.660156 3.628906 1.761719 5h2.089844c-1.4375-1.191406-2.351563-2.992187-2.351563-5z" fill="#fb8c00"/><path d="m9.945313 16 9.621093 13.054688s1.324219 2.074218 2.894532-.035157c1.570312-2.113281 9.59375-13.019531 9.59375-13.019531z" fill="#f50057"/></svg>

<svg xmlns="http://www.w3.org/2000/svg" viewBox="0 0 48 48" width="50" height="50" fill="#666"><path d="M 42 12 C 42 16.417969 38.417969 20 34 20 C 29.582031 20 26 16.417969 26 12 C 26 7.582031 29.582031 4 34 4 C 38.417969 4 42 7.582031 42 12 Z" fill="#ffeb3b"/><path d="M 33 5 L 35 5 L 35 19 L 33 19 Z" fill="#fffde7"/><path d="M 27 11 L 41 11 L 41 13 L 27 13 Z" fill="#fffde7"/><path d="M 28.34375 7.757813 L 29.757813 6.34375 L 39.65625 16.242188 L 38.242188 17.65625 Z" fill="#fffde7"/><path d="M 29.757813 17.65625 L 28.34375 16.242188 L 38.242188 6.34375 L 39.65625 7.757813 Z" fill="#fffde7"/><path d="M 34 5.5 C 37.585938 5.5 40.5 8.414063 40.5 12 C 40.5 15.585938 37.585938 18.5 34 18.5 C 30.414063 18.5 27.5 15.585938 27.5 12 C 27.5 8.414063 30.414063 5.5 34 5.5 M 34 4 C 29.582031 4 26 7.582031 26 12 C 26 16.417969 29.582031 20 34 20 C 38.417969 20 42 16.417969 42 12 C 42 7.582031 38.417969 4 34 4 Z" fill="#ffc107"/><path d="M 29.851563 17 L 31.316406 17 L 35 12 L 27.5 12 C 27.5 14.007813 28.414063 15.808594 29.851563 17 Z" fill="#ffb300"/><path d="M 20 28.53125 L 22 28.53125 L 22 42 L 20 42 Z" fill="#90caf9"/><path d="M 29 43 C 29 43 22 42 22 39 C 22 36 20 36 20 39 C 20 42 13 43 13 43 C 12.445313 43 12 43.445313 12 44 L 30 44 C 30 43.445313 29.554688 43 29 43 Z" fill="#90caf9"/><path d="M 7 12 L 10.683594 17 L 27.761719 17 C 26.660156 15.628906 26 13.894531 26 12 Z" fill="#90caf9"/><path d="M 27.5 12 L 26 12 C 26 13.894531 26.660156 15.628906 27.761719 17 L 29.851563 17 C 28.414063 15.808594 27.5 14.007813 27.5 12 Z" fill="#fb8c00"/><path d="M 9.945313 16 L 19.566406 29.054688 C 19.566406 29.054688 20.890625 31.128906 22.460938 29.019531 C 24.03125 26.90625 32.054688 16 32.054688 16 Z" fill="#f50057"/></svg>
